svg/OSM-icons/amenity #7bffff °373737 !label=enamenities,deEinrichtungen/12129;amenity=recycling;!name=;!recycling=;[recycling];!label=enrecycling,deWertstoffe.svg

<svg xmlns="http://www.w3.org/2000/svg" viewBox="0 0 580 580" enable-background="new 0 0 580 580"><path fill="#111" stroke="#eee" stroke-width="3.408" d="m66.28 1.768c-41.34 0-64.57 21.371-64.57 65.04v450.12c0 40.844 20.895 62.23 62.19 62.23h452.02c41.31 0 62.23-20.315 62.23-62.23v-450.12c0-42.601-20.924-65.04-63.52-65.04-.004 0-448.5-.143-448.35 0z"/><path fill="#fff" d="m217.64 344.54l-62.23-108.42h-125.15l50.872 29.449-31.45 54.2c-2.683 4.916-4.02 10.05-4.02 15.398 0 5.352 1.341 10.484 4.02 15.398l49.5 86.33c2.233-6.25 4.466-11.607 6.699-16.07l61.57-105.73 50.18 29.448m-93 87c-3.581 5.801-5.371 12.04-5.371 18.729 0 10.266 3.683 18.965 11.05 26.1 7.365 7.133 16.17 10.701 26.426 10.701h123.15v-99.7h-129.83c-.899 1.785-4.248 7.584-10.05 17.4l-15.378 26.773m166.63-246.95h124.47l62.901-108.4-50.852 29.449-31.472-54.22c-5.8-10.251-14.718-15.378-26.753-15.378h-99.05c4.02 4.453 7.365 8.912 10.05 13.377l60.879 105.73-10.03 6.02-40.15 23.424m-60.899-143.2c-14.283 0-24.991 6.243-32.12 18.727l-62.23 107.07c23.635 13.833 52.41 30.341 86.32 49.52 20.07-34.35 41.703-71.825 64.902-112.42l-24.752-44.17c-7.133-12.484-17.841-18.726-32.12-18.726m159.95 344.63v-12.05-46.15l-62.25 108.4 62.25 107.75v-58.23h62.23c12.05 0 21.19-5.133 27.427-15.398l49.52-86.33c-6.686 1.785-12.261 2.676-16.726 2.676l-122.45-.674m92.35-183.35c-2.233 1.334-31.02 17.843-86.35 49.52 27.665 47.733 49.53 85.43 65.6 113.1h50.18c14.731 0 25.664-6.25 32.799-18.748 6.685-12.05 6.46-24.316-.674-36.801l-61.55-107.07"/></svg>

<?xml version="1.0" encoding="utf-8"?>
<!-- Generator: Adobe Illustrator 15.0.0, SVG Export Plug-In . SVG Version: 6.00 Build 0)  -->
<!DOCTYPE svg PUBLIC "-//W3C//DTD SVG 1.1//EN" "http://www.w3.org/Graphics/SVG/1.1/DTD/svg11.dtd">
<svg version="1.1" xmlns="http://www.w3.org/2000/svg" xmlns:xlink="http://www.w3.org/1999/xlink" x="0px" y="0px" width="580px"
	 height="580px" viewBox="0 0 580 580" enable-background="new 0 0 580 580" xml:space="preserve">
<g id="Layer_1">
	<g id="Layer_2">
		<g id="g1327">
			<path id="path1329" fill="#111111" stroke="#EEEEEE" stroke-width="3.408" d="M66.275,1.768
				c-41.335,0-64.571,21.371-64.571,65.036v450.123c0,40.844,20.895,62.229,62.192,62.229H515.92
				c41.307,0,62.229-20.315,62.229-62.229V66.804c0-42.601-20.924-65.036-63.521-65.036C514.624,1.768,66.133,1.625,66.275,1.768z"
				/>
		</g>
	</g>
</g>
<g id="Layer_3">
	<g>
		<path id="flowRoot3192" fill="#FFFFFF" d="M217.639,344.537l-62.227-108.421H30.263l50.872,29.449l-31.45,54.201
			c-2.683,4.916-4.023,10.049-4.023,15.398c0,5.352,1.341,10.484,4.023,15.398l49.503,86.326c2.233-6.25,4.466-11.607,6.699-16.072
			l61.574-105.727L217.639,344.537z M124.635,431.537c-3.581,5.801-5.371,12.043-5.371,18.729c0,10.266,3.683,18.965,11.049,26.1
			c7.365,7.133,16.174,10.701,26.426,10.701h123.147v-99.703H150.061c-0.899,1.785-4.248,7.584-10.048,17.4L124.635,431.537z
			 M291.261,184.59h124.475l62.901-108.402l-50.852,29.449l-31.472-54.221c-5.8-10.251-14.718-15.378-26.753-15.378h-99.048
			c4.016,4.453,7.365,8.912,10.047,13.377l60.879,105.727l-10.027,6.024L291.261,184.59z M230.362,41.389
			c-14.283,0-24.991,6.243-32.125,18.727L136.01,167.19c23.635,13.833,52.411,30.341,86.325,49.524
			c20.068-34.35,41.703-71.825,64.902-112.425l-24.752-44.174C255.352,47.631,244.644,41.389,230.362,41.389L230.362,41.389z
			 M390.31,386.016v-12.049v-46.154l-62.247,108.402l62.247,107.748v-58.225h62.228c12.048,0,21.19-5.133,27.427-15.398
			l49.524-86.326c-6.686,1.785-12.261,2.676-16.726,2.676L390.31,386.016z M482.66,202.664
			c-2.233,1.334-31.016,17.843-86.347,49.524c27.665,47.733,49.531,85.433,65.597,113.099h50.178
			c14.731,0,25.664-6.25,32.799-18.748c6.685-12.049,6.46-24.316-0.674-36.801L482.66,202.664z"/>
	</g>
</g>
</svg>
